X: 4028
T: RIDDRIE
R: Strathspey.
%R: strathspey
B: James Kerr "Merry Melodies" v.4 p.06 #28
Z: 2016 John Chambers <jc:trillian.mit.edu>
M: C
L: 1/8
K: A
|:\
ve>vduc>uA (d<f) f2 | e>dc>A F<B G<E |\
e>dc>A (d<f) f2 | (ef/g/) a>c B2 A2 :|
|:\
e>dc>a (f<d) d2 | f>e^d>b (g>e) e2 |\
e>dc>a (3fed (3cBA |[1 (3GAB E>B (3Afe (3dcB :|\
[2 (3GAB E>d (c<A) A2 |]

%%sep 1 1 500
%%sep 1 1 500

